;Project ChickenFan_etch_copper_bottom
;Created by Estlcam version 8 build 8.507
;Machining time about 12:09:17 AM hours

G90
M03 S24000
G00 X0.0000 Y0.0000 Z0.0000
G00 Z2.0000


;No. 1: Engraving 18
G00 X2.2427 Y1.8512
G00 Z0.5000
G01 Z-0.0500 F60 S24000
G02 X1.3410 Y2.7530 I0.0000 J0.9017 F120
G02 X2.2427 Y3.6547 I0.9017 J0.0000
G02 X3.1444 Y2.7530 I0.0000 J-0.9017
G02 X2.2427 Y1.8512 I-0.9017 J0.0000
G00 Z2.0000


;No. 2: Engraving 19
G00 X4.7841 Y1.8499 Z2.0000
G00 Z0.5000
G01 Z-0.0500 F60
G02 X3.8823 Y2.7518 I0.0000 J0.9019 F120
G02 X4.7841 Y3.6537 I0.9019 J0.0000
G02 X5.6860 Y2.7518 I0.0000 J-0.9019
G02 X4.7841 Y1.8499 I-0.9019 J0.0000
G00 Z2.0000


;No. 3: Engraving 20
G00 X7.3239 Y1.8500 Z2.0000
G00 Z0.5000
G01 Z-0.0500 F60
G03 X8.2255 Y2.7517 I0.0000 J0.9016 F120
G03 X7.3239 Y3.6533 I-0.9016 J0.0000
G03 X6.4222 Y2.7517 I0.0000 J-0.9016
G03 X7.3239 Y1.8500 I0.9016 J0.0000
G00 Z2.0000


;No. 4: Engraving 21
G00 X9.8630 Y1.8009 Z2.0000
G00 Z0.5000
G01 Z-0.0500 F60
G03 X10.8146 Y2.7525 I0.0000 J0.9515 F120
G03 X9.8630 Y3.7040 I-0.9515 J0.0000
G03 X8.9115 Y2.7525 I0.0000 J-0.9515
G03 X9.8630 Y1.8009 I0.9515 J0.0000
G00 Z2.0000


;No. 5: Engraving 22
G00 X12.4027 Y1.8007 Z2.0000
G00 Z0.5000
G01 Z-0.0500 F60
G03 X13.3544 Y2.7525 I0.0000 J0.9517 F120
G03 X12.4027 Y3.7042 I-0.9517 J0.0000
G03 X11.4510 Y2.7525 I0.0000 J-0.9517
G03 X12.4027 Y1.8007 I0.9517 J0.0000
G00 Z2.0000


;No. 6: Engraving 23
G00 X14.9442 Y1.8010 Z2.0000
G00 Z0.5000
G01 Z-0.0500 F60
G03 X15.8960 Y2.7528 I0.0000 J0.9518 F120
G03 X14.9442 Y3.7046 I-0.9518 J0.0000
G03 X13.9924 Y2.7528 I0.0000 J-0.9518
G03 X14.9442 Y1.8010 I0.9518 J0.0000
G00 Z2.0000


;No. 7: Engraving 24
G00 X17.4828 Y1.8003 Z2.0000
G00 Z0.5000
G01 Z-0.0500 F60
G03 X18.4346 Y2.7521 I0.0000 J0.9518 F120
G03 X17.4828 Y3.7039 I-0.9518 J0.0000
G03 X16.5309 Y2.7521 I0.0000 J-0.9518
G03 X17.4828 Y1.8003 I0.9518 J0.0000
G00 Z2.0000


;No. 8: Engraving 25
G00 X20.0243 Y1.8014 Z2.0000
G00 Z0.5000
G01 Z-0.0500 F60
G03 X20.9760 Y2.7531 I0.0000 J0.9517 F120
G03 X20.0243 Y3.7049 I-0.9517 J0.0000
G03 X19.0725 Y2.7531 I0.0000 J-0.9517
G03 X20.0243 Y1.8014 I0.9517 J0.0000
G00 Z2.0000


;No. 9: Engraving 26
G00 X22.5642 Y1.8001 Z2.0000
G00 Z0.5000
G01 Z-0.0500 F60
G03 X23.5159 Y2.7519 I0.0000 J0.9518 F120
G03 X22.5642 Y3.7036 I-0.9518 J0.0000
G03 X21.6124 Y2.7519 I0.0000 J-0.9518
G03 X22.5642 Y1.8001 I0.9518 J0.0000
G00 Z2.0000


;No. 10: Engraving 27
G00 X25.1029 Y1.8013 Z2.0000
G00 Z0.5000
G01 Z-0.0500 F60
G03 X26.0547 Y2.7531 I0.0000 J0.9518 F120
G03 X25.1029 Y3.7049 I-0.9518 J0.0000
G03 X24.1511 Y2.7531 I0.0000 J-0.9518
G03 X25.1029 Y1.8013 I0.9518 J0.0000
G00 Z2.0000


;No. 11: Engraving 28
G00 X27.6441 Y1.8001 Z2.0000
G00 Z0.5000
G01 Z-0.0500 F60
G03 X28.5959 Y2.7519 I0.0000 J0.9518 F120
G03 X27.6441 Y3.7037 I-0.9518 J0.0000
G03 X26.6923 Y2.7519 I0.0000 J-0.9518
G03 X27.6441 Y1.8001 I0.9518 J0.0000
G00 Z2.0000


;No. 12: Engraving 29
G00 X32.7235 Y1.8014 Z2.0000
G00 Z0.5000
G01 Z-0.0500 F60
G03 X33.6753 Y2.7532 I0.0000 J0.9518 F120
G03 X32.7235 Y3.7050 I-0.9518 J0.0000
G03 X31.7716 Y2.7532 I0.0000 J-0.9518
G03 X32.7235 Y1.8014 I0.9518 J0.0000
G00 Z2.0000


;No. 13: Engraving 30
G00 X34.3115 Y2.7525 Z2.0000
G00 Z0.5000
G01 Z-0.0500 F60
G03 X35.5634 Y1.8488 I0.9535 J0.0020 F120
G03 X36.2128 Y2.6748 I-0.3056 J0.9085
G03 X35.7369 Y3.5732 I-0.9481 J0.0731
G01 X35.7711 Y3.9899
G01 X52.3555 Y9.7055
G03 X53.3562 Y9.4740 I0.6856 J0.6852
G03 X53.8846 Y9.9370 I-0.3302 J0.9098
G01 X64.3125 Y9.5826
G01 X65.0517 Y5.8900
G01 X65.0544 Y4.6205
G01 X63.8131 Y4.3654
G03 X63.1372 Y4.6421 I-0.6132 J-0.5340
G03 X62.6299 Y4.4061 I0.0680 J-0.8094
G03 X63.4586 Y3.0612 I0.5744 J-0.5738
G03 X63.9707 Y3.5776 I-0.2690 J0.7790
G01 X65.5832 Y3.8986
G03 X65.8480 Y4.1370 I-0.1120 J0.3907
G01 X65.8776 Y4.2893
G01 X65.8675 Y5.8426
G01 X68.5367 Y13.1812
G03 X69.1969 Y13.8176 I-0.1663 J0.8332
G03 X68.4031 Y14.8053 I-0.7968 J0.1725
G03 X67.6553 Y14.3076 I0.0037 J-0.8162
G03 X67.7868 Y13.4708 I0.7350 J-0.3131
G01 X65.5759 Y7.4157
G01 X65.0423 Y10.0901
G03 X64.7653 Y10.3716 I-0.4006 J-0.1172
G01 X64.6677 Y10.3885
G01 X53.9249 Y10.7489
G03 X52.9001 Y11.3140 I-0.8861 J-0.3952
G03 X52.1014 Y10.4772 I0.1519 J-0.9446
G01 X35.2202 Y4.6624
G03 X34.9854 Y4.3929 I0.1724 J-0.3873
G01 X34.9278 Y3.6498
G03 X34.3115 Y2.7525 I0.3635 J-0.9099
G00 Z2.0000


;No. 14: Engraving 31
G00 X36.8998 Y3.0524 Z2.0000
G00 Z0.5000
G01 Z-0.0500 F60
G03 X37.9572 Y1.8125 I0.9060 J-0.2982 F120
G03 X38.6125 Y2.2521 I-0.1595 J0.9460
G03 X38.7174 Y3.0055 I-0.7665 J0.4907
G01 X38.8204 Y3.0942
G01 X62.5814 Y7.3149
G03 X63.3979 Y7.0437 I0.6240 J0.5140
G03 X63.2035 Y8.6455 I-0.1942 J0.7891
G03 X62.4417 Y8.1048 I0.0052 J-0.8143
G01 X38.5775 Y3.8799
G03 X38.1937 Y3.6272 I0.1578 J-0.6577
G03 X37.5755 Y3.6771 I-0.3881 J-0.9543
G03 X36.8998 Y3.0524 I0.2353 J-0.9323
G00 Z2.0000


;No. 15: Engraving 15
G00 X35.2640 Y17.0914 Z2.0000
G00 Z0.5000
G01 Z-0.0500 F60
G03 X36.1658 Y17.9932 I0.0000 J0.9017 F120
G03 X35.2640 Y18.8949 I-0.9017 J0.0000
G03 X34.3623 Y17.9932 I0.0000 J-0.9017
G03 X35.2640 Y17.0914 I0.9017 J0.0000
G00 Z2.0000


;No. 16: Engraving 14
G00 X32.7233 Y17.0899 Z2.0000
G00 Z0.5000
G01 Z-0.0500 F60
G03 X33.6252 Y17.9918 I0.0000 J0.9019 F120
G03 X32.7233 Y18.8937 I-0.9019 J0.0000
G03 X31.8214 Y17.9918 I0.0000 J-0.9019
G03 X32.7233 Y17.0899 I0.9019 J0.0000
G00 Z2.0000


;No. 17: Engraving 13
G00 X30.1844 Y17.0900 Z2.0000
G00 Z0.5000
G01 Z-0.0500 F60
G03 X31.0864 Y17.9920 I0.0000 J0.9020 F120
G03 X30.1844 Y18.8939 I-0.9020 J0.0000
G03 X29.2824 Y17.9920 I0.0000 J-0.9020
G03 X30.1844 Y17.0900 I0.9020 J0.0000
G00 Z2.0000


;No. 18: Engraving 12
G00 X27.4256 Y17.1168 Z2.0000
G00 Z0.5000
G01 Z-0.0500 F60
G03 X28.5340 Y17.8468 I0.2159 J0.8786 F120
G03 X28.3810 Y18.5091 I-0.8793 J0.1456
G01 X28.3056 Y18.6019
G01 X28.1716 Y18.7207
G01 X28.0161 Y18.8116
G01 X27.8656 Y18.8644
G01 X27.8014 Y18.9278
G01 X27.7240 Y19.2794
G01 X27.7853 Y19.3742
G01 X39.3941
G01 X44.1987 Y17.7681
G01 X44.3109 Y17.7475
G01 X67.6779 Y17.6428
G01 X67.7518 Y17.6043
G01 X67.8901 Y17.4336
G01 X68.0512 Y17.3181
G01 X68.2386 Y17.2478
G01 X68.4027 Y17.2295
G03 X68.5855 Y18.7326 I0.0007 J0.7626
G01 X68.3613 Y18.7538
G01 X68.1255 Y18.7012
G01 X67.9233 Y18.5801
G01 X67.8386 Y18.4981
G01 X67.7572 Y18.3881
G01 X67.6814 Y18.3484
G01 X44.3872 Y18.4612
G01 X39.5726 Y20.0664
G01 X39.4731 Y20.0881
G01 X27.2408 Y20.0931
G03 X26.9114 Y19.8183 I0.0176 J-0.3560
G01 X26.9083 Y19.6701
G01 X27.1003 Y18.7982
G01 X27.0830 Y18.7043
G01 X26.9229 Y18.5311
G01 X26.8035 Y18.3186
G01 X26.7501 Y18.1195
G01 X26.7440 Y17.9188
G03 X27.4295 Y17.1158 I0.9055 J0.0789
G00 Z2.0000


;No. 19: Engraving 11
G00 X25.1041 Y17.0912 Z2.0000
G00 Z0.5000
G01 Z-0.0500 F60
G02 X24.2023 Y17.9930 I0.0000 J0.9018 F120
G02 X25.1041 Y18.8948 I0.9018 J0.0000
G02 X26.0059 Y17.9930 I0.0000 J-0.9018
G02 X25.1041 Y17.0912 I-0.9018 J0.0000
G00 Z2.0000


;No. 20: Engraving 10
G00 X22.5639 Y17.0899 Z2.0000
G00 Z0.5000
G01 Z-0.0500 F60
G02 X21.6621 Y17.9916 I0.0000 J0.9017 F120
G02 X22.5639 Y18.8934 I0.9017 J0.0000
G02 X23.4656 Y17.9916 I0.0000 J-0.9017
G02 X22.5639 Y17.0899 I-0.9017 J0.0000
G00 Z2.0000


;No. 21: Engraving 9
G00 X20.0244 Y17.0911 Z2.0000
G00 Z0.5000
G01 Z-0.0500 F60
G02 X19.1228 Y17.9927 I0.0000 J0.9016 F120
G02 X20.0244 Y18.8943 I0.9016 J0.0000
G02 X20.9259 Y17.9927 I0.0000 J-0.9016
G02 X20.0244 Y17.0911 I-0.9016 J0.0000
G00 Z2.0000


;No. 22: Engraving 8
G00 X20.0243 Y17.0904 Z2.0000
G00 Z0.5000
G01 Z-0.0500 F60
G03 X20.9260 Y17.9920 I0.0000 J0.9016 F120
G03 X20.0243 Y18.8936 I-0.9016 J0.0000
G03 X19.1227 Y17.9920 I0.0000 J-0.9016
G03 X20.0243 Y17.0904 I0.9016 J0.0000
G00 Z2.0000


;No. 23: Engraving 7
G00 X17.4834 Y17.0899 Z2.0000
G00 Z0.5000
G01 Z-0.0500 F60
G03 X18.3854 Y17.9919 I0.0000 J0.9020 F120
G03 X17.4834 Y18.8939 I-0.9020 J0.0000
G03 X16.5814 Y17.9919 I0.0000 J-0.9020
G03 X17.4834 Y17.0899 I0.9020 J0.0000
G00 Z2.0000


;No. 24: Engraving 6
G00 X14.5917 Y17.1620 Z2.0000
G00 Z0.5000
G01 Z-0.0500 F60
G01 X14.7276 Y17.1164 F120
G01 X14.8698 Y17.0930
G01 X15.0585 Y17.0981
G01 X15.2462 Y17.1455
G01 X15.3282 Y17.1266
G01 X21.3171 Y11.3469
G01 X21.4197 Y11.2778
G01 X21.5403 Y11.2447
G01 X44.5045 Y10.0625
G01 X44.5886 Y10.0192
G03 X44.9622 Y9.5987 I0.8796 J0.4051
G01 X45.2068 Y9.4968
G01 X45.3683 Y9.4717
G01 X45.4921 Y9.4726
G03 X46.0204 Y9.7002 I-0.0697 J0.8887
G01 X46.1488 Y9.8430
G01 X46.2168 Y9.9524
G01 X46.2691 Y10.0712
G01 X46.3102 Y10.2357
G01 X46.3675 Y10.3116
G01 X52.3062 Y12.2913
G01 X52.3938 Y12.2816
G01 X52.5279 Y12.1738
G01 X52.6848 Y12.0856
G01 X52.8940 Y12.0226
G03 X53.4567 Y12.1112 I0.1498 J0.8803
G03 X53.3934 Y13.7436 I-0.4123 J0.8014
G03 X52.6023 Y13.6975 I-0.3491 J-0.8183
G01 X52.4466 Y13.5846
G01 X52.3181 Y13.4417
G01 X52.2218 Y13.2739
G01 X52.1567 Y13.0488
G01 X52.0994 Y12.9728
G01 X46.1605 Y10.9936
G01 X46.0731 Y11.0034
G01 X45.8786 Y11.1500
G01 X45.6453 Y11.2469
G01 X45.4242 Y11.2750
G01 X45.1786 Y11.2402
G01 X45.0433 Y11.1886
G01 X44.8806 Y11.0883
G01 X44.7425 Y10.9566
G01 X44.6487 Y10.8243
G01 X44.5675 Y10.7739
G01 X21.7220 Y11.9518
G01 X15.8013 Y17.6604
G03 X15.4751 Y18.7200 I-0.8847 J0.3077
G03 X14.1422 Y18.4058 I-0.5326 J-0.7249
G03 X14.5953 Y17.1605 I0.8003 J-0.4139
G00 Z2.0000


;No. 25: Engraving 5
G00 X12.4043 Y17.0904 Z2.0000
G00 Z0.5000
G01 Z-0.0500 F60
G03 X13.3059 Y17.9921 I0.0000 J0.9017 F120
G03 X12.4043 Y18.8938 I-0.9017 J0.0000
G03 X11.5026 Y17.9921 I0.0000 J-0.9017
G03 X12.4043 Y17.0904 I0.9017 J0.0000
G00 Z2.0000


;No. 26: Engraving 4
G00 X9.8639 Y17.0899 Z2.0000
G00 Z0.5000
G01 Z-0.0500 F60
G02 X8.9621 Y17.9916 I0.0000 J0.9017 F120
G02 X9.8639 Y18.8934 I0.9017 J0.0000
G02 X10.7656 Y17.9916 I0.0000 J-0.9017
G02 X9.8639 Y17.0899 I-0.9017 J0.0000
G00 Z2.0000


;No. 27: Engraving 3
G00 X7.3233 Y17.0899 Z2.0000
G00 Z0.5000
G01 Z-0.0500 F60
G03 X8.2252 Y17.9918 I0.0000 J0.9019 F120
G03 X7.3233 Y18.8937 I-0.9019 J0.0000
G03 X6.4214 Y17.9918 I0.0000 J-0.9019
G03 X7.3233 Y17.0899 I0.9019 J0.0000
G00 Z2.0000


;No. 28: Engraving 2
G00 X4.7842 Y17.0899 Z2.0000
G00 Z0.5000
G01 Z-0.0500 F60
G03 X5.6862 Y17.9919 I0.0000 J0.9020 F120
G03 X4.7842 Y18.8939 I-0.9020 J0.0000
G03 X3.8822 Y17.9919 I0.0000 J-0.9020
G03 X4.7842 Y17.0899 I0.9020 J0.0000
G00 Z2.0000


;No. 29: Engraving 1
G00 X2.2437 Y17.0899 Z2.0000
G00 Z0.5000
G01 Z-0.0500 F60
G03 X3.1456 Y17.9918 I0.0000 J0.9019 F120
G03 X2.2437 Y18.8936 I-0.9019 J0.0000
G03 X1.3419 Y17.9918 I0.0000 J-0.9019
G03 X2.2437 Y17.0899 I0.9019 J0.0000
G00 Z2.0000


;No. 30: Engraving 16
G00 X38.7060 Y17.0900 Z2.0000
G00 Z0.5000
G01 Z-0.0500 F60
G01 Y18.8950 F120
G01 X36.9010
G01 Y17.1050
G00 Z2.0000


;No. 31: Engraving 17
G00 X44.7381 Y19.9478 Z2.0000
G00 Z0.5000
G01 Z-0.0500 F60
G03 X45.4243 Y19.6300 I0.6874 J0.5845 F120
G01 X45.6735 Y19.6660
G01 X45.8958 Y19.7670
G01 X46.0479 Y19.8875
G01 X46.2067 Y20.0952
G01 X46.2873 Y20.1480
G01 X69.8951 Y19.3881
G01 X69.9816 Y19.3169
G01 Y16.8969
G01 X69.9146 Y16.8119
G01 X68.5804 Y16.7328
G01 X68.3643 Y16.7540
G01 X68.1467 Y16.7066
G01 X53.9248 Y15.8622
G01 X53.8341 Y15.8948
G01 X53.6573 Y16.1089
G01 X53.4644 Y16.2480
G01 X53.2402 Y16.3328
G01 X53.0938 Y16.3535
G01 X52.9698 Y16.3519
G03 X52.1529 Y15.5981 I0.0785 J-0.9047
G03 X53.0437 Y14.5500 I0.8939 J-0.1429
G03 X53.5520 Y14.7090 I0.0000 J0.8917
G01 X53.7105 Y14.8481
G01 X53.8062 Y14.9744
G01 X53.8650 Y15.0844
G01 X53.9424 Y15.1486
G01 X67.5584 Y15.9576
G01 X67.6517 Y15.8972
G03 X67.8552 Y15.4671 I0.7590 J0.0959
G01 X68.0266 Y15.3309
G01 X68.2322 Y15.2488
G01 X68.4383 Y15.2299
G01 X68.6391 Y15.2679
G01 X68.7900 Y15.3385
G01 X68.9679 Y15.4871
G01 X69.0561 Y15.5241
G01 X69.9139 Y15.3772
G01 X69.9816 Y15.3035
G01 Y12.4716
G01 X66.8229 Y2.9961
G01 X66.7628 Y2.9297
G01 X64.5838 Y2.2033
G01 X39.4392 Y1.3928
G01 X30.8784
G01 X30.7948 Y1.4530
G01 X30.7009 Y1.9442
G01 X30.7238 Y2.0255
G01 X30.8390 Y2.1354
G01 X30.9422 Y2.2675
G01 X31.0485 Y2.4961
G03 X31.0402 Y3.0365 I-0.8519 J0.2571
G03 X30.1098 Y3.6519 I-0.8596 J-0.2885
G03 X29.2831 Y2.6904 I0.0777 J-0.9029
G03 X29.4742 Y2.1994 I0.8890 J0.0632
G01 X29.6410 Y2.0364
G01 X29.7911 Y1.9445
G01 X29.9375 Y1.8887
G01 X29.9982 Y1.8238
G01 X30.1635 Y0.9576
G01 X30.1932 Y0.8752
G01 X30.2417 Y0.8033
G01 X30.3595 Y0.7140
G01 X30.5046 Y0.6804
G01 X39.4645
G01 X64.6571 Y1.4907
G01 X64.7697 Y1.5097
G01 X67.1971 Y2.3170
G01 X67.2960 Y2.3685
G01 X67.3761 Y2.4486
G01 X67.4290 Y2.5468
G01 X70.6895 Y12.3518
G01 X70.7033 Y15.6878
G03 X70.4126 Y16.0210 I-0.3683 J-0.0279
G01 X70.4132 Y16.1306
G03 X70.7001 Y16.4687 I-0.0715 J0.3514
G01 Y19.7449
G01 X70.6578 Y19.8995
G01 X70.5518 Y20.0216
G01 X70.4534 Y20.0739
G01 X70.3437 Y20.0933
G01 X46.3386 Y20.8595
G01 X46.2513 Y20.9013
G03 X45.8789 Y21.3101 I-0.8713 J-0.4195
G01 X45.6378 Y21.4090
G01 X45.4243 Y21.4349
G03 X44.7406 Y19.9450 I-0.0006 J-0.9015
G00 Z2.0000


;No. 32: Engraving 32
G00 X78.4426 Y7.0202 Z2.0000
G00 Z0.5000
G01 Z-0.0500 F60
G03 X79.2548 Y7.8324 I0.0000 J0.8122 F120
G03 X78.4426 Y8.6445 I-0.8122 J0.0000
G03 X77.6304 Y7.8324 I0.0000 J-0.8122
G03 X78.4426 Y7.0202 I0.8122 J0.0000
G00 Z2.0000


;No. 33: Engraving 33
G00 X78.4426 Y5.0199 Z2.0000
G00 Z0.5000
G01 Z-0.0500 F60
G03 X79.2548 Y5.8321 I0.0000 J0.8122 F120
G03 X78.4426 Y6.6444 I-0.8122 J0.0000
G03 X77.6304 Y5.8321 I0.0000 J-0.8122
G03 X78.4426 Y5.0199 I0.8122 J0.0000
G00 Z2.0000


;No. 34: Engraving 34
G00 X78.4439 Y3.0208 Z2.0000
G00 Z0.5000
G01 Z-0.0500 F60
G03 X79.2558 Y3.8328 I0.0000 J0.8119 F120
G03 X78.4439 Y4.6447 I-0.8119 J0.0000
G03 X77.6319 Y3.8328 I0.0000 J-0.8119
G03 X78.4439 Y3.0208 I0.8119 J0.0000
G00 Z2.0000
G00 X0.0000 Y0.0000

M05
