;Project ChickenFan2_etch_copper_bottom
;Created by Estlcam version 8 build 8.507
;Machining time about 12:09:11 AM hours

G90
M03 S24000
G00 X0.0000 Y0.0000 Z0.0000
G00 Z2.0000


;No. 1: Engraving 34
G00 X7.8247 Y3.1301
G00 Z0.5000
G01 Z-0.0300 F60 S24000
G03 X8.7765 Y4.0819 I0.0000 J0.9518 F120
G03 X7.8247 Y5.0337 I-0.9518 J0.0000
G03 X6.8729 Y4.0819 I0.0000 J-0.9518
G03 X7.8247 Y3.1301 I0.9518 J0.0000
G00 Z2.0000


;No. 2: Engraving 33
G00 X10.3634 Y3.1303 Z2.0000
G00 Z0.5000
G01 Z-0.0300 F60
G03 X11.3152 Y4.0821 I0.0000 J0.9519 F120
G03 X10.3634 Y5.0340 I-0.9519 J0.0000
G03 X9.4115 Y4.0821 I0.0000 J-0.9519
G03 X10.3634 Y3.1303 I0.9519 J0.0000
G00 Z2.0000


;No. 3: Engraving 32
G00 X12.9040 Y3.1300 Z2.0000
G00 Z0.5000
G01 Z-0.0300 F60
G03 X13.8558 Y4.0818 I0.0000 J0.9518 F120
G03 X12.9040 Y5.0336 I-0.9518 J0.0000
G03 X11.9522 Y4.0818 I0.0000 J-0.9518
G03 X12.9040 Y3.1300 I0.9518 J0.0000
G00 Z2.0000


;No. 4: Engraving 31
G00 X15.4449 Y3.1305 Z2.0000
G00 Z0.5000
G01 Z-0.0300 F60
G03 X16.3965 Y4.0822 I0.0000 J0.9517 F120
G03 X15.4449 Y5.0339 I-0.9517 J0.0000
G03 X14.4932 Y4.0822 I0.0000 J-0.9517
G03 X15.4449 Y3.1305 I0.9517 J0.0000
G00 Z2.0000


;No. 5: Engraving 30
G00 X17.9842 Y3.1300 Z2.0000
G00 Z0.5000
G01 Z-0.0300 F60
G03 X18.9359 Y4.0817 I0.0000 J0.9518 F120
G03 X17.9842 Y5.0335 I-0.9518 J0.0000
G03 X17.0324 Y4.0817 I0.0000 J-0.9518
G03 X17.9842 Y3.1300 I0.9518 J0.0000
G00 Z2.0000


;No. 6: Engraving 29
G00 X20.5242 Y3.1300 Z2.0000
G00 Z0.5000
G01 Z-0.0300 F60
G03 X21.4759 Y4.0817 I0.0000 J0.9518 F120
G03 X20.5242 Y5.0335 I-0.9518 J0.0000
G03 X19.5724 Y4.0817 I0.0000 J-0.9518
G03 X20.5242 Y3.1300 I0.9518 J0.0000
G00 Z2.0000


;No. 7: Engraving 28
G00 X23.0651 Y3.1301 Z2.0000
G00 Z0.5000
G01 Z-0.0300 F60
G03 X24.0171 Y4.0821 I0.0000 J0.9520 F120
G03 X23.0651 Y5.0340 I-0.9520 J0.0000
G03 X22.1132 Y4.0821 I0.0000 J-0.9520
G03 X23.0651 Y3.1301 I0.9520 J0.0000
G00 Z2.0000


;No. 8: Engraving 27
G00 X25.6048 Y3.1302 Z2.0000
G00 Z0.5000
G01 Z-0.0300 F60
G03 X26.5565 Y4.0819 I0.0000 J0.9517 F120
G03 X25.6048 Y5.0336 I-0.9517 J0.0000
G03 X24.6532 Y4.0819 I0.0000 J-0.9517
G03 X25.6048 Y3.1302 I0.9517 J0.0000
G00 Z2.0000


;No. 9: Engraving 26
G00 X28.1441 Y3.1300 Z2.0000
G00 Z0.5000
G01 Z-0.0300 F60
G03 X29.0958 Y4.0816 I0.0000 J0.9517 F120
G03 X28.1441 Y5.0333 I-0.9517 J0.0000
G03 X27.1925 Y4.0816 I0.0000 J-0.9517
G03 X28.1441 Y3.1300 I0.9517 J0.0000
G00 Z2.0000


;No. 10: Engraving 25
G00 X30.6848 Y3.1303 Z2.0000
G00 Z0.5000
G01 Z-0.0300 F60
G03 X31.6365 Y4.0820 I0.0000 J0.9518 F120
G03 X30.6848 Y5.0338 I-0.9518 J0.0000
G03 X29.7330 Y4.0820 I0.0000 J-0.9518
G03 X30.6848 Y3.1303 I0.9518 J0.0000
G00 Z2.0000


;No. 11: Engraving 24
G00 X33.2235 Y3.1314 Z2.0000
G00 Z0.5000
G01 Z-0.0300 F60
G03 X34.1752 Y4.0831 I0.0000 J0.9518 F120
G03 X33.2235 Y5.0349 I-0.9518 J0.0000
G03 X32.2717 Y4.0831 I0.0000 J-0.9518
G03 X33.2235 Y3.1314 I0.9518 J0.0000
G00 Z2.0000


;No. 12: Engraving 23
G00 X38.3042 Y3.1315 Z2.0000
G00 Z0.5000
G01 Z-0.0300 F60
G03 X39.2559 Y4.0832 I0.0000 J0.9517 F120
G03 X38.3042 Y5.0350 I-0.9517 J0.0000
G03 X37.3525 Y4.0832 I0.0000 J-0.9517
G03 X38.3042 Y3.1315 I0.9517 J0.0000
G00 Z2.0000


;No. 13: Engraving 22
G00 X44.4870 Y3.6810 Z2.0000
G00 Z0.5000
G01 Z-0.0300 F60
G01 X68.0172 Y8.3873 F120
G01 X68.1580 Y8.4349
G01 X68.2831 Y8.5151
G03 X68.9785 Y8.3737 I0.5025 J0.6909
G03 X68.7840 Y9.9755 I-0.1942 J0.7891
G03 X68.0829 Y9.5637 I0.0053 J-0.8119
G01 X67.9264 Y9.5931
G01 X67.7782 Y9.5825
G01 X44.2434 Y4.8759
G01 X44.1315 Y4.8422
G01 X44.0281 Y4.7878
G03 X43.1561 Y5.0071 I-0.6461 J-0.7257
G03 X42.7116 Y3.4101 I0.2267 J-0.9235
G03 X43.5508 Y3.1449 I0.6722 J0.6668
G03 X44.2439 Y3.6806 I-0.1764 J0.9444
G01 X44.3708 Y3.6686
G01 X44.4870 Y3.6810
G00 Z2.0000


;No. 14: Engraving 15
G00 X42.4315 Y18.3700 Z2.0000
G00 Z0.5000
G01 Z-0.0300 F60
G01 X44.3365 F120
G01 Y20.2750
G01 X42.4315
G01 Y18.3700
G00 Z2.0000


;No. 15: Engraving 14
G00 X40.8449 Y18.3708 Z2.0000
G00 Z0.5000
G01 Z-0.0300 F60
G03 X41.7965 Y19.3225 I0.0000 J0.9517 F120
G03 X40.8449 Y20.2741 I-0.9517 J0.0000
G03 X39.8932 Y19.3225 I0.0000 J-0.9517
G03 X40.8449 Y18.3708 I0.9517 J0.0000
G00 Z2.0000


;No. 16: Engraving 13
G00 X38.3049 Y18.3712 Z2.0000
G00 Z0.5000
G01 Z-0.0300 F60
G03 X39.2566 Y19.3229 I0.0000 J0.9516 F120
G03 X38.3049 Y20.2745 I-0.9516 J0.0000
G03 X37.3533 Y19.3229 I0.0000 J-0.9516
G03 X38.3049 Y18.3712 I0.9516 J0.0000
G00 Z2.0000


;No. 17: Engraving 12
G00 X35.7652 Y18.3707 Z2.0000
G00 Z0.5000
G01 Z-0.0300 F60
G03 X36.7171 Y19.3227 I0.0000 J0.9519 F120
G03 X35.7652 Y20.2746 I-0.9519 J0.0000
G03 X34.8132 Y19.3227 I0.0000 J-0.9519
G03 X35.7652 Y18.3707 I0.9519 J0.0000
G00 Z2.0000


;No. 18: Engraving 11
G00 X33.5239 Y18.4188 Z2.0000
G00 Z0.5000
G01 Z-0.0300 F60
G03 X34.1663 Y19.4610 I-0.3024 J0.9055 F120
G03 X33.3773 Y20.2590 I-0.9460 J-0.1464
G01 X33.3323 Y20.4443
G01 X33.1579 Y20.7898
G01 X48.1267 Y23.0928
G01 X55.3256
G01 X72.9752 Y18.9338
G01 X73.1231 Y18.9190
G01 X73.2701 Y18.9405
G03 X74.1781 Y18.5332 I0.7161 J0.3806
G03 X74.2395 Y20.0933 I-0.1937 J0.7889
G03 X73.5151 Y19.9828 I-0.2548 J-0.7595
G01 X73.3931 Y20.0676
G01 X73.2541 Y20.1203
G01 X55.5356 Y24.2961
G01 X55.3880 Y24.3142
G01 X48.0266 Y24.3102
G01 X32.0684 Y21.8610
G03 X31.6191 Y21.2188 I0.1580 J-0.5888
G01 X31.6404 Y21.1039
G01 X31.6833 Y20.9952
G01 X32.2366 Y19.9142
G01 X32.3696 Y19.7495
G03 X32.3468 Y18.9530 I0.8824 J-0.4238
G03 X33.5239 Y18.4188 I0.8776 J0.3699
G00 Z2.0000


;No. 19: Engraving 10
G00 X30.6848 Y18.3705 Z2.0000
G00 Z0.5000
G01 Z-0.0300 F60
G03 X31.6365 Y19.3222 I0.0000 J0.9517 F120
G03 X30.6848 Y20.2740 I-0.9517 J0.0000
G03 X29.7331 Y19.3222 I0.0000 J-0.9517
G03 X30.6848 Y18.3705 I0.9517 J0.0000
G00 Z2.0000


;No. 20: Engraving 9
G00 X28.1437 Y18.3700 Z2.0000
G00 Z0.5000
G01 Z-0.0300 F60
G03 X29.0954 Y19.3217 I0.0000 J0.9517 F120
G03 X28.1437 Y20.2734 I-0.9517 J0.0000
G03 X27.1920 Y19.3217 I0.0000 J-0.9517
G03 X28.1437 Y18.3700 I0.9517 J0.0000
G00 Z2.0000


;No. 21: Engraving 8
G00 X25.6036 Y18.3699 Z2.0000
G00 Z0.5000
G01 Z-0.0300 F60
G03 X26.5555 Y19.3218 I0.0000 J0.9519 F120
G03 X25.6036 Y20.2737 I-0.9519 J0.0000
G03 X24.6517 Y19.3218 I0.0000 J-0.9519
G03 X25.6036 Y18.3699 I0.9519 J0.0000
G00 Z2.0000


;No. 22: Engraving 7
G00 X23.0638 Y18.3699 Z2.0000
G00 Z0.5000
G01 Z-0.0300 F60
G03 X24.0157 Y19.3219 I0.0000 J0.9519 F120
G03 X23.0638 Y20.2738 I-0.9519 J0.0000
G03 X22.1119 Y19.3219 I0.0000 J-0.9519
G03 X23.0638 Y18.3699 I0.9519 J0.0000
G00 Z2.0000


;No. 23: Engraving 6
G00 X19.8516 Y18.6501 Z2.0000
G00 Z0.5000
G01 Z-0.0300 F60
G03 X20.5731 Y18.3749 I0.6538 J0.6308 F120
G01 X20.6166 Y18.2665
G01 X20.6801 Y18.1683
G01 X24.4416 Y13.5607
G01 X24.5848 Y13.4347
G01 X24.7692 Y13.3539
G01 X49.9574 Y11.1812
G01 X50.0742 Y11.1833
G01 X50.1885 Y11.2076
G03 X51.0046 Y10.7500 I0.8260 J0.5165
G03 X51.9064 Y11.4136 I-0.0065 J0.9533
G01 X52.0232 Y11.4145
G01 X52.1479 Y11.4409
G01 X57.8701 Y13.3484
G01 X57.9767 Y13.3965
G01 X58.0721 Y13.4639
G03 X59.0604 Y13.3968 I0.5499 J0.7870
G03 X58.8519 Y15.1671 I-0.4357 J0.8461
G03 X57.7217 Y14.5330 I-0.2247 J-0.9239
G01 X57.6049 Y14.5314
G01 X57.4805 Y14.5037
G01 X51.7585 Y12.5965
G01 X51.6522 Y12.5479
G01 X51.5571 Y12.4800
G03 X50.2913 Y12.3264 I-0.5485 J-0.7722
G01 X50.1732 Y12.3744
G01 X50.0583 Y12.3959
G01 X25.2248 Y14.5341
G01 X21.6275 Y18.9355
G01 X21.5446 Y19.0179
G01 X21.4475 Y19.0830
G03 X21.0853 Y20.0903 I-0.9361 J0.2322
G03 X19.8516 Y18.6501 I-0.5613 J-0.7677
G00 Z2.0000


;No. 24: Engraving 5
G00 X17.9848 Y18.3709 Z2.0000
G00 Z0.5000
G01 Z-0.0300 F60
G03 X18.9365 Y19.3227 I0.0000 J0.9517 F120
G03 X17.9848 Y20.2744 I-0.9517 J0.0000
G03 X17.0331 Y19.3227 I0.0000 J-0.9517
G03 X17.9848 Y18.3709 I0.9517 J0.0000
G00 Z2.0000


;No. 25: Engraving 4
G00 X15.4437 Y18.3702 Z2.0000
G00 Z0.5000
G01 Z-0.0300 F60
G03 X16.3953 Y19.3218 I0.0000 J0.9517 F120
G03 X15.4437 Y20.2735 I-0.9517 J0.0000
G03 X14.4920 Y19.3218 I0.0000 J-0.9517
G03 X15.4437 Y18.3702 I0.9517 J0.0000
G00 Z2.0000


;No. 26: Engraving 3
G00 X12.9048 Y18.3702 Z2.0000
G00 Z0.5000
G01 Z-0.0300 F60
G03 X13.8565 Y19.3219 I0.0000 J0.9517 F120
G03 X12.9048 Y20.2736 I-0.9517 J0.0000
G03 X11.9532 Y19.3219 I0.0000 J-0.9517
G03 X12.9048 Y18.3702 I0.9517 J0.0000
G00 Z2.0000


;No. 27: Engraving 2
G00 X10.3652 Y18.3707 Z2.0000
G00 Z0.5000
G01 Z-0.0300 F60
G03 X11.3171 Y19.3227 I0.0000 J0.9519 F120
G03 X10.3652 Y20.2746 I-0.9519 J0.0000
G03 X9.4132 Y19.3227 I0.0000 J-0.9519
G03 X10.3652 Y18.3707 I0.9519 J0.0000
G00 Z2.0000


;No. 28: Engraving 1
G00 X7.8246 Y18.3713 Z2.0000
G00 Z0.5000
G01 Z-0.0300 F60
G03 X8.7764 Y19.3231 I0.0000 J0.9518 F120
G03 X7.8246 Y20.2749 I-0.9518 J0.0000
G03 X6.8728 Y19.3231 I0.0000 J-0.9518
G03 X7.8246 Y18.3713 I0.9518 J0.0000
G00 Z2.0000


;No. 29: Engraving 16
G00 X50.2364 Y21.3012 Z2.0000
G00 Z0.5000
G01 Z-0.0300 F60
G03 X51.3287 Y20.9711 I0.7592 J0.5400 F120
G01 X51.4096 Y20.8727
G01 X51.5003 Y20.7990
G01 X57.4549 Y16.8294
G01 X57.5582 Y16.7747
G01 X57.6700 Y16.7406
G03 X58.4025 Y15.8564 I0.9674 J0.0558
G03 X59.4079 Y16.2450 I0.2206 J0.9241
G01 X59.5209 Y16.2154
G01 X59.6375 Y16.2079
G01 X73.1131 Y16.6814
G01 X73.2598 Y16.7048
G01 X73.3966 Y16.7631
G03 X74.3304 Y16.5906 I0.5828 J0.5416
G01 X74.4256 Y16.4908
G01 X74.5409 Y16.4149
G01 X75.5122 Y15.9887
G01 Y6.8181
G01 X73.3497 Y3.5753
G01 X36.4652 Y2.3858
G01 X36.4245 Y3.1392
G01 X36.3685 Y3.3434
G03 X36.6682 Y4.3824 I-0.6187 J0.7411
G03 X35.6863 Y5.0318 I-0.9071 J-0.3044
G03 X34.8128 Y4.0331 I0.0818 J-0.9529
G03 X35.2437 Y3.2871 I0.9543 J0.0537
G01 X35.2151 Y3.1737
G01 X35.2087 Y3.0570
G01 X35.2795 Y1.7244
G01 X35.3174 Y1.5374
G03 X35.8927 Y1.1398 I0.5716 J0.2120
G01 X73.7015 Y2.3612
G03 X74.2017 Y2.6244 I-0.0161 J0.6375
G01 X74.2761 Y2.7652
G01 X76.6289 Y6.2950
G01 X76.6932 Y6.4173
G01 X76.7274 Y6.5401
G01 X76.7313 Y16.3979
G03 X76.4947 Y16.8773 I-0.6112 J-0.0035
G01 X76.3671 Y16.9534
G01 X75.0368 Y17.5269
G01 X74.9035 Y17.5626
G01 X74.7656 Y17.5667
G03 X73.9836 Y18.1351 I-0.7937 J-0.2699
G03 X73.3613 Y17.8369 I0.0041 J-0.8071
G01 X73.2211 Y17.8862
G01 X73.0625 Y17.9003
G01 X59.6001 Y17.4266
G01 X59.4841 Y17.4119
G01 X59.3731 Y17.3754
G03 X58.2988 Y17.6738 I-0.7403 J-0.5822
G01 X58.2256 Y17.7648
G01 X58.1275 Y17.8463
G01 X52.1731 Y21.8160
G01 X52.0699 Y21.8708
G01 X51.9581 Y21.9048
G03 X51.3638 Y22.7436 I-0.9699 J-0.0573
G03 X50.2364 Y21.3012 I-0.3591 J-0.8811
G00 Z2.0000


;No. 30: Engraving 17
G00 X69.9600 Y12.1217 Z2.0000
G00 Z0.5000
G01 Z-0.0300 F60
G01 X59.6432 Y12.2956 F120
G01 X59.5267 Y12.2859
G01 X59.4043 Y12.2502
G03 X58.3773 Y12.6219 I-0.7813 J-0.5541
G03 X57.7173 Y11.9781 I0.2590 J-0.9258
G01 X57.6005 Y11.9746
G01 X57.4765 Y11.9450
G01 X40.4786 Y5.9615
G03 X40.1738 Y5.5816 I0.2984 J-0.5515
G03 X40.2390 Y4.8183 I1.7636 J-0.2338
G03 X39.9046 Y3.9287 I0.6187 J-0.7403
G03 X40.8440 Y3.1300 I0.9432 J0.1576
G03 X41.7477 Y3.7826 I-0.0040 J0.9575
G03 X41.7513 Y4.3702 I-0.8916 J0.2994
G03 X41.3572 Y4.8812 I-0.9176 J-0.3003
G01 X41.3849 Y4.9838
G01 X57.8844 Y10.7959
G01 X57.9902 Y10.8456
G01 X58.0845 Y10.9147
G03 X59.3797 Y11.1314 I0.5344 J0.7847
G01 X59.5005 Y11.0905
G01 X59.6165 Y11.0759
G01 X69.8374 Y10.9037
G01 X72.6508 Y9.0280
G01 X69.1103 Y6.2024
G01 X69.0075 Y6.0951
G01 X68.9338 Y5.9661
G03 X68.1290 Y5.6414 I-0.1346 J-0.8259
G03 X69.0334 Y4.3890 I0.6562 J-0.4788
G03 X69.5938 Y5.1292 I-0.2577 J0.7773
G01 X69.7365 Y5.1706
G01 X69.8734 Y5.2518
G01 X74.0778 Y8.5971
G03 X74.2953 Y8.9988 I-0.3883 J0.4700
G01 X74.2934 Y14.5721
G03 X74.7967 Y15.3223 I-0.3131 J0.7539
G03 X74.4626 Y15.9776 I-0.8141 J-0.0022
G03 X73.6490 Y16.0620 I-0.4782 J-0.6461
G03 X73.2307 Y15.6210 I0.3466 J-0.7477
G01 X72.8729 Y15.4368
G01 X72.7530 Y15.3491
G01 X72.6466 Y15.2168
G01 X72.5782 Y15.0501
G03 X73.0663 Y14.3038 I0.5921 J-0.1456
G01 X73.0736 Y10.2114
G01 X70.3459 Y12.0292
G03 X69.9600 Y12.1217 I-0.3261 J-0.5094
G00 Z2.0000


;No. 31: Engraving 21
G00 X68.7843 Y6.3510 Z2.0000
G00 Z0.5000
G01 Z-0.0300 F60
G03 X69.5964 Y7.1631 I0.0000 J0.8121 F120
G03 X68.7843 Y7.9752 I-0.8121 J0.0000
G03 X67.9723 Y7.1631 I0.0000 J-0.8121
G03 X68.7843 Y6.3510 I0.8121 J0.0000
G00 Z2.0000


;No. 32: Engraving 19
G00 X84.0239 Y6.3510 Z2.0000
G00 Z0.5000
G01 Z-0.0300 F60
G03 X84.8360 Y7.1631 I0.0000 J0.8120 F120
G03 X84.0239 Y7.9751 I-0.8120 J0.0000
G03 X83.2119 Y7.1631 I0.0000 J-0.8120
G03 X84.0239 Y6.3510 I0.8120 J0.0000
G00 Z2.0000


;No. 33: Engraving 18
G00 X84.0241 Y8.3511 Z2.0000
G00 Z0.5000
G01 Z-0.0300 F60
G03 X84.8363 Y9.1633 I0.0000 J0.8122 F120
G03 X84.0241 Y9.9755 I-0.8122 J0.0000
G03 X83.2120 Y9.1633 I0.0000 J-0.8122
G03 X84.0241 Y8.3511 I0.8122 J0.0000
G00 Z2.0000


;No. 34: Engraving 20
G00 X84.0245 Y4.3505 Z2.0000
G00 Z0.5000
G01 Z-0.0300 F60
G03 X84.8365 Y5.1624 I0.0000 J0.8120 F120
G03 X84.0245 Y5.9744 I-0.8120 J0.0000
G03 X83.2126 Y5.1624 I0.0000 J-0.8120
G03 X84.0245 Y4.3505 I0.8120 J0.0000
G00 Z2.0000
G00 X0.0000 Y0.0000

M05
